X: 271
T: Kira Giorgena
O: Greece
Z: Deborah Jones
F: http://www.youtube.com/watch?v=ATSDkJAAqtk
M: 4/4
L: 1/8
K: A
C>D               |"A"E>E E>E =F>E F>A             |=FE-E4 C>D         |
E>E E>E =F>E F>G  | FE-E6                          |"E7" B>B B>A A>G G2|
"D" A>A A>G G>F F2|"E7"G>G G>F F>E E2              |{G}G6 F2           |
"A" E>D C6        |(3CCC "E7" (3DDD "A" (3EEE (3DDD| "E7" (3GGG A>B cz (3[cE][cE][cE]



